gtk-icons/Papirus-GTK/16x16/mimetypes/application-x-php.svg

<?xml version="1.0" encoding="UTF-8" standalone="no"?>
<svg
   xmlns:dc="http://purl.org/dc/elements/1.1/"
   xmlns:cc="http://creativecommons.org/ns#"
   xmlns:rdf="http://www.w3.org/1999/02/22-rdf-syntax-ns#"
   xmlns:svg="http://www.w3.org/2000/svg"
   xmlns="http://www.w3.org/2000/svg"
   xmlns:sodipodi="http://sodipodi.sourceforge.net/DTD/sodipodi-0.dtd"
   xmlns:inkscape="http://www.inkscape.org/namespaces/inkscape"
   width="16px"
   height="16px"
   viewBox="0 0 16 16"
   version="1.1"
   id="svg2"
   inkscape:version="0.91 r"
   sodipodi:docname="application-x-php.svg">
  <metadata
     id="metadata17">
    <rdf:RDF>
      <cc:Work
         rdf:about="">
        <dc:format>image/svg+xml</dc:format>
        <dc:type
           rdf:resource="http://purl.org/dc/dcmitype/StillImage" />
      </cc:Work>
    </rdf:RDF>
  </metadata>
  <defs
     id="defs15" />
  <sodipodi:namedview
     pagecolor="#ffffff"
     bordercolor="#666666"
     borderopacity="1"
     objecttolerance="10"
     gridtolerance="10"
     guidetolerance="10"
     inkscape:pageopacity="0"
     inkscape:pageshadow="2"
     inkscape:window-width="1535"
     inkscape:window-height="876"
     id="namedview13"
     showgrid="false"
     inkscape:zoom="14.75"
     inkscape:cx="-4.0338983"
     inkscape:cy="8"
     inkscape:window-x="65"
     inkscape:window-y="24"
     inkscape:window-maximized="1"
     inkscape:current-layer="svg2" />
  <g
     id="surface1"
     transform="matrix(1.2,0,0,1.2,-1.6,-1.1)">
    <path
       style="fill:#977dbf;fill-opacity:1;fill-rule:nonzero;stroke:none"
       d="M 3.625,1.75 C 3.277344,1.75 3,2.027344 3,2.375 l 0,11.25 c 0,0.347656 0.277344,0.625 0.625,0.625 l 8.75,0 C 12.722656,14.25 13,13.972656 13,13.625 L 13,5.5 9.5625,5.1875 9.25,1.75 Z m 0,0"
       id="path5"
       inkscape:connector-curvature="0" />
    <path
       style="fill:#b88ff5;fill-opacity:1;fill-rule:nonzero;stroke:none"
       d="m 9.25,1.75 0,3.125 C 9.25,5.21875 9.53125,5.5 9.875,5.5 L 13,5.5 Z m 0,0"
       id="path7"
       inkscape:connector-curvature="0" />
    <path
       style="fill:#ffffff;fill-opacity:1;fill-rule:evenodd;stroke:none"
       d="M 8.832031,7.75 C 8.648438,7.75 8.5,7.988281 8.5,8.171875 l 0,0.667969 c -0.00781,0.449218 0.757812,0.449218 0.75,0 L 9.25,8.5 l 0.5,0 0,1.160156 -0.824219,0.566406 C 8.835938,10.289062 8.753906,10.386719 8.75,10.496094 l 0,0.664062 c -0.00781,0.453125 0.757812,0.453125 0.75,0 l 0,-0.488281 0.851562,-0.566406 C 10.441406,10.046875 10.496094,9.945312 10.5,9.839844 l 0,-1.667969 C 10.5,7.988281 10.351562,7.75 10.167969,7.75 Z M 7.5,8 5,10.25 7.5,12.5 7.5,11.5 6.25,10.25 7.5,9 Z m 1.625,3.75 c -0.207031,0 -0.375,0.167969 -0.375,0.375 0,0.207031 0.167969,0.375 0.375,0.375 C 9.332031,12.5 9.5,12.332031 9.5,12.125 9.5,11.917969 9.332031,11.75 9.125,11.75 Z m 0,0"
       id="path9"
       inkscape:connector-curvature="0" />
    <path
       style="fill:#ffffff;fill-opacity:0.2;fill-rule:nonzero;stroke:none"
       d="M 3.625,1.75 C 3.277344,1.75 3,2.027344 3,2.375 l 0,0.5 C 3,2.527344 3.277344,2.25 3.625,2.25 l 5.625,0 c 0,-0.5 0,0 0,-0.5 z m 0,0"
       id="path11"
       inkscape:connector-curvature="0" />
  </g>
</svg>

<?xml version="1.0" encoding="UTF-8" standalone="no"?>
<svg id="svg2" xmlns:rdf="http://www.w3.org/1999/02/22-rdf-syntax-ns#" xmlns="http://www.w3.org/2000/svg" height="16px" width="16px" version="1.1" xmlns:cc="http://creativecommons.org/ns#" xmlns:dc="http://purl.org/dc/elements/1.1/" viewBox="0 0 16 16">
 <metadata id="metadata17">
  <rdf:RDF>
   <cc:Work rdf:about="">
    <dc:format>image/svg+xml</dc:format>
    <dc:type rdf:resource="http://purl.org/dc/dcmitype/StillImage"/>
   </cc:Work>
  </rdf:RDF>
 </metadata>
 <g id="surface1" transform="matrix(1.2,0,0,1.2,-1.6,-1.1)">
  <path id="path5" d="m3.625 1.75c-0.3477 0-0.625 0.2773-0.625 0.625v11.25c0 0.34766 0.27734 0.625 0.625 0.625h8.75c0.348 0 0.625-0.277 0.625-0.625v-8.125l-3.4375-0.3125-0.3125-3.4375z" fill="#977dbf"/>
  <path id="path7" d="m9.25 1.75v3.125c0 0.3438 0.2812 0.625 0.625 0.625h3.125z" fill="#b88ff5"/>
  <path id="path9" d="m8.832 7.75c-0.1836 0-0.332 0.2383-0.332 0.4219v0.66797c-0.00781 0.44922 0.75781 0.44922 0.75 0v-0.3399h0.5v1.1602l-0.82422 0.56641c-0.0899 0.062-0.1719 0.16-0.1758 0.269v0.66406c-0.00781 0.45312 0.75781 0.45312 0.75 0v-0.48828l0.85156-0.56641c0.089-0.058 0.144-0.1597 0.148-0.2652v-1.668c0-0.1835-0.148-0.4218-0.332-0.4218zm-1.332 0.25-2.5 2.25 2.5 2.25v-1l-1.25-1.25 1.25-1.25zm1.625 3.75c-0.20703 0-0.375 0.16797-0.375 0.375s0.16797 0.375 0.375 0.375c0.207 0 0.375-0.168 0.375-0.375s-0.168-0.375-0.375-0.375z" fill-rule="evenodd" fill="#fff"/>
  <path id="path11" d="m3.625 1.75c-0.3477 0-0.625 0.2773-0.625 0.625v0.5c0-0.3477 0.2773-0.625 0.625-0.625h5.625v-0.5z" fill-opacity=".2" fill="#fff"/>
 </g>
</svg>
